**harm	**harte	**timestamp	**phrase	**leadinstrument	**kern
*M4/4	*M4/4	*	*	*	*
*F#:	*F#:	*	*	*	*F#:
1r;	N	0	.	r	1r;
=1	=1	=1	=1	=1	=1
*>A_intro	*>A_intro	*>A_intro	*>A_intro	*>A_intro	*>A_intro
2I	F#:1	0.511	newline	guitar	2F# 2a# 2cc#
2IV	B:1	1.452	.	guitar	2B 2dd# 2ff#
=2	=2	=2	=2	=2	=2
2V	C#:1	2.394	.	guitar	2C# 2e# 2g#
2I	F#:1	3.335	.	guitar	2F# 2a# 2cc#
=3	=3	=3	=3	=3	=3
2I	F#:1	4.277	.	guitar	2F# 2a# 2cc#
2IV	B:1	5.218	.	guitar	2B 2dd# 2ff#
=4	=4	=4	=4	=4	=4
2V	C#:1	6.16	.	guitar	2C# 2e# 2g#
2I	F#:1	7.101	.	guitar	2F# 2a# 2cc#
=5	=5	=5	=5	=5	=5
*>B_verse	*>B_verse	*>B_verse	*>B_verse	*>B_verse	*>B_verse
2I	F#:maj	8.043	newline	voice	2F# 2a# 2cc#
2IV	B:maj	8.977	.	voice	2B 2dd# 2ff#
=6	=6	=6	=6	=6	=6
2V	C#:maj	9.911	.	voice	2C# 2e# 2g#
2I	F#:maj	10.845	.	voice	2F# 2a# 2cc#
=7	=7	=7	=7	=7	=7
2I	F#:maj	11.779	.	voice	2F# 2a# 2cc#
2IV	B:maj	12.713	.	voice	2B 2dd# 2ff#
=8	=8	=8	=8	=8	=8
2V	C#:maj	13.647	.	voice	2C# 2e# 2g#
2I	F#:maj	14.582	.	voice	2F# 2a# 2cc#
=9	=9	=9	=9	=9	=9
2I	F#:maj	15.516	newline	voice	2F# 2a# 2cc#
2IV	B:maj	16.421	.	voice	2B 2dd# 2ff#
=10	=10	=10	=10	=10	=10
2V	C#:maj	17.326	.	voice	2C# 2e# 2g#
2I	F#:maj	18.231	.	voice	2F# 2a# 2cc#
=11	=11	=11	=11	=11	=11
2I	F#:maj	19.136	.	voice	2F# 2a# 2cc#
2IV	B:maj	20.041	.	voice	2B 2dd# 2ff#
=12	=12	=12	=12	=12	=12
2V	C#:maj	20.946	.	voice	2C# 2e# 2g#
2I	F#:maj	21.851	.	voice	2F# 2a# 2cc#
=13	=13	=13	=13	=13	=13
*>C_chorus	*>C_chorus	*>C_chorus	*>C_chorus	*>C_chorus	*>C_chorus
2I	F#:maj	22.756	newline	voice	2F# 2a# 2cc#
2IV	B:maj	23.652	.	voice	2B 2dd# 2ff#
=14	=14	=14	=14	=14	=14
2V	C#:maj	24.548	.	voice	2C# 2e# 2g#
2I	F#:maj	25.444	.	voice	2F# 2a# 2cc#
=15	=15	=15	=15	=15	=15
2I	F#:maj	26.34	.	voice	2F# 2a# 2cc#
2IV	B:maj	27.236	.	voice	2B 2dd# 2ff#
=16	=16	=16	=16	=16	=16
2V	C#:maj	28.132	.	voice	2C# 2e# 2g#
2I	F#:maj	29.029	.	voice	2F# 2a# 2cc#
=17	=17	=17	=17	=17	=17
2I	F#:maj	29.925	newline	voice	2F# 2a# 2cc#
2IV	B:maj	30.83	.	voice	2B 2dd# 2ff#
=18	=18	=18	=18	=18	=18
2V	C#:maj	31.736	.	voice	2C# 2e# 2g#
2I	F#:maj	32.641	.	voice	2F# 2a# 2cc#
=19	=19	=19	=19	=19	=19
*>A_trans	*>A_trans	*>A_trans	*>A_trans	*>A_trans	*>A_trans
2I	F#:1	33.547	newline	guitar	2F# 2a# 2cc#
2IV	B:1	34.49	.	guitar	2B 2dd# 2ff#
=20	=20	=20	=20	=20	=20
2V	C#:1	35.433	.	guitar	2C# 2e# 2g#
2I	F#:1	36.376	.	guitar	2F# 2a# 2cc#
=21	=21	=21	=21	=21	=21
2I	F#:1	37.319	.	guitar	2F# 2a# 2cc#
2IV	B:1	38.262	.	guitar	2B 2dd# 2ff#
=22	=22	=22	=22	=22	=22
2V	C#:1	39.205	.	guitar	2C# 2e# 2g#
2I	F#:1	40.148	.	guitar	2F# 2a# 2cc#
=23	=23	=23	=23	=23	=23
*>B_verse	*>B_verse	*>B_verse	*>B_verse	*>B_verse	*>B_verse
2I	F#:maj	41.091	newline	voice	2F# 2a# 2cc#
2IV	B:maj	42.026	.	voice	2B 2dd# 2ff#
=24	=24	=24	=24	=24	=24
2V	C#:maj	42.962	.	voice	2C# 2e# 2g#
2I	F#:maj	43.898	.	voice	2F# 2a# 2cc#
=25	=25	=25	=25	=25	=25
2I	F#:maj	44.834	.	voice	2F# 2a# 2cc#
2IV	B:maj	45.77	.	voice	2B 2dd# 2ff#
=26	=26	=26	=26	=26	=26
2V	C#:maj	46.706	.	voice	2C# 2e# 2g#
2I	F#:maj	47.641	.	voice	2F# 2a# 2cc#
=27	=27	=27	=27	=27	=27
2I	F#:maj	48.577	newline	voice	2F# 2a# 2cc#
2IV	B:maj	49.483	.	voice	2B 2dd# 2ff#
=28	=28	=28	=28	=28	=28
2V	C#:maj	50.39	.	voice	2C# 2e# 2g#
2I	F#:maj	51.296	.	voice	2F# 2a# 2cc#
=29	=29	=29	=29	=29	=29
2I	F#:maj	52.202	.	voice	2F# 2a# 2cc#
2IV	B:maj	53.109	.	voice	2B 2dd# 2ff#
=30	=30	=30	=30	=30	=30
2V	C#:maj	54.015	.	voice	2C# 2e# 2g#
2I	F#:maj	54.922	.	voice	2F# 2a# 2cc#
=31	=31	=31	=31	=31	=31
*>C_chorus	*>C_chorus	*>C_chorus	*>C_chorus	*>C_chorus	*>C_chorus
2I	F#:maj	55.828	newline	voice	2F# 2a# 2cc#
2IV	B:maj	56.734	.	voice	2B 2dd# 2ff#
=32	=32	=32	=32	=32	=32
2V	C#:maj	57.64	.	voice	2C# 2e# 2g#
2I	F#:maj	58.545	.	voice	2F# 2a# 2cc#
=33	=33	=33	=33	=33	=33
2I	F#:maj	59.451	.	voice	2F# 2a# 2cc#
2IV	B:maj	60.357	.	voice	2B 2dd# 2ff#
=34	=34	=34	=34	=34	=34
2V	C#:maj	61.263	.	voice	2C# 2e# 2g#
2I	F#:maj	62.169	.	voice	2F# 2a# 2cc#
=35	=35	=35	=35	=35	=35
2I	F#:maj	63.075	newline	voice	2F# 2a# 2cc#
2IV	B:maj	63.99	.	voice	2B 2dd# 2ff#
=36	=36	=36	=36	=36	=36
2V	C#:maj	64.906	.	voice	2C# 2e# 2g#
2I	F#:maj	65.821	.	voice	2F# 2a# 2cc#
=37	=37	=37	=37	=37	=37
2I	F#:maj	66.736	.	voice	2F# 2a# 2cc#
2IV	B:maj	67.652	.	voice	2B 2dd# 2ff#
=38	=38	=38	=38	=38	=38
2V	C#:maj	68.567	.	voice	2C# 2e# 2g#
2I	F#:maj	69.483	.	voice	2F# 2a# 2cc#
=39	=39	=39	=39	=39	=39
*>D_bridge	*>D_bridge	*>D_bridge	*>D_bridge	*>D_bridge	*>D_bridge
2V	C#:maj	70.398	newline	voice	2C# 2e# 2g#
2I	F#:maj	71.313	.	voice	2F# 2a# 2cc#
=40	=40	=40	=40	=40	=40
2II	G#:maj	72.227	.	voice	2G# 2b# 2dd#
2V	C#:maj	73.142	.	voice	2C# 2e# 2g#
=41	=41	=41	=41	=41	=41
2V	C#:maj	74.057	.	voice	2C# 2e# 2g#
2I	F#:maj	74.972	.	voice	2F# 2a# 2cc#
=42	=42	=42	=42	=42	=42
2II	G#:maj	75.886	.	voice	2G# 2b# 2dd#
2V	C#:maj	76.801	.	voice	2C# 2e# 2g#
=43	=43	=43	=43	=43	=43
2V	C#:maj	77.716	newline	voice	2C# 2e# 2g#
2I	F#:maj	78.629	.	voice	2F# 2a# 2cc#
=44	=44	=44	=44	=44	=44
2II	G#:maj	79.543	.	voice	2G# 2b# 2dd#
2V	C#:maj	80.457	.	voice	2C# 2e# 2g#
=45	=45	=45	=45	=45	=45
1V	C#:maj	81.37	.	voice	1C# 1e# 1g#
=46	=46	=46	=46	=46	=46
1V	C#:maj	83.198	.	voice	1C# 1e# 1g#
=47	=47	=47	=47	=47	=47
*>A_trans	*>A_trans	*>A_trans	*>A_trans	*>A_trans	*>A_trans
2I	F#:1	85.025	newline	guitar	2F# 2a# 2cc#
2IV	B:1	85.969	.	guitar	2B 2dd# 2ff#
=48	=48	=48	=48	=48	=48
2V	C#:1	86.912	.	guitar	2C# 2e# 2g#
2I	F#:1	87.856	.	guitar	2F# 2a# 2cc#
=49	=49	=49	=49	=49	=49
2I	F#:1	88.8	.	guitar	2F# 2a# 2cc#
2IV	B:1	89.744	.	guitar	2B 2dd# 2ff#
=50	=50	=50	=50	=50	=50
2V	C#:1	90.688	.	guitar	2C# 2e# 2g#
2I	F#:1	91.631	.	guitar	2F# 2a# 2cc#
=51	=51	=51	=51	=51	=51
*>B_verse	*>B_verse	*>B_verse	*>B_verse	*>B_verse	*>B_verse
2I	F#:maj	92.575	newline	voice	2F# 2a# 2cc#
2IV	B:maj	93.503	.	voice	2B 2dd# 2ff#
=52	=52	=52	=52	=52	=52
2V	C#:maj	94.431	.	voice	2C# 2e# 2g#
2I	F#:maj	95.36	.	voice	2F# 2a# 2cc#
=53	=53	=53	=53	=53	=53
2I	F#:maj	96.288	.	voice	2F# 2a# 2cc#
2IV	B:maj	97.216	.	voice	2B 2dd# 2ff#
=54	=54	=54	=54	=54	=54
2V	C#:maj	98.144	.	voice	2C# 2e# 2g#
2I	F#:maj	99.072	.	voice	2F# 2a# 2cc#
=55	=55	=55	=55	=55	=55
2I	F#:maj	100	newline	voice	2F# 2a# 2cc#
2IV	B:maj	100.905	.	voice	2B 2dd# 2ff#
=56	=56	=56	=56	=56	=56
2V	C#:maj	101.81	.	voice	2C# 2e# 2g#
2I	F#:maj	102.714	.	voice	2F# 2a# 2cc#
=57	=57	=57	=57	=57	=57
2I	F#:maj	103.619	.	voice	2F# 2a# 2cc#
2IV	B:maj	104.524	.	voice	2B 2dd# 2ff#
=58	=58	=58	=58	=58	=58
2V	C#:maj	105.429	.	voice	2C# 2e# 2g#
2I	F#:maj	106.333	.	voice	2F# 2a# 2cc#
=59	=59	=59	=59	=59	=59
*>C_chorus	*>C_chorus	*>C_chorus	*>C_chorus	*>C_chorus	*>C_chorus
2I	F#:maj	107.238	newline	voice	2F# 2a# 2cc#
2IV	B:maj	108.146	.	voice	2B 2dd# 2ff#
=60	=60	=60	=60	=60	=60
2V	C#:maj	109.055	.	voice	2C# 2e# 2g#
2I	F#:maj	109.963	.	voice	2F# 2a# 2cc#
=61	=61	=61	=61	=61	=61
2I	F#:maj	110.871	.	voice	2F# 2a# 2cc#
2IV	B:maj	111.779	.	voice	2B 2dd# 2ff#
=62	=62	=62	=62	=62	=62
2V	C#:maj	112.688	.	voice	2C# 2e# 2g#
2I	F#:maj	113.596	.	voice	2F# 2a# 2cc#
=63	=63	=63	=63	=63	=63
2I	F#:maj	114.504	newline	voice	2F# 2a# 2cc#
2IV	B:maj	115.401	.	voice	2B 2dd# 2ff#
=64	=64	=64	=64	=64	=64
2V	C#:maj	116.299	.	voice	2C# 2e# 2g#
2I	F#:maj	117.196	.	voice	2F# 2a# 2cc#
=65	=65	=65	=65	=65	=65
2I	F#:maj	118.093	.	voice	2F# 2a# 2cc#
2IV	B:maj	118.99	.	voice	2B 2dd# 2ff#
=66	=66	=66	=66	=66	=66
2V	C#:maj	119.887	.	voice	2C# 2e# 2g#
2I	F#:maj	120.785	.	voice	2F# 2a# 2cc#
=67	=67	=67	=67	=67	=67
*>C2_outro	*>C2_outro	*>C2_outro	*>C2_outro	*>C2_outro	*>C2_outro
2I	F#:maj	121.682	newline	voice	2F# 2a# 2cc#
2IV	B:maj	122.592	.	voice	2B 2dd# 2ff#
=68	=68	=68	=68	=68	=68
2V	C#:maj	123.503	.	voice	2C# 2e# 2g#
2I	F#:maj	124.413	.	voice	2F# 2a# 2cc#
=69	=69	=69	=69	=69	=69
2I	F#:maj	125.323	.	voice	2F# 2a# 2cc#
2IV	B:maj	126.233	.	voice	2B 2dd# 2ff#
=70	=70	=70	=70	=70	=70
2V	C#:maj	127.144	.	voice	2C# 2e# 2g#
2I	F#:maj	128.054	.	voice	2F# 2a# 2cc#
=71	=71	=71	=71	=71	=71
*>_fadeout	*>_fadeout	*>_fadeout	*>_fadeout	*>_fadeout	*>_fadeout
2I	F#:maj	128.964	newline	voice	2F# 2a# 2cc#
2IV	B:maj	129.88	.	voice	2B 2dd# 2ff#
=72	=72	=72	=72	=72	=72
2V	C#:maj	130.796	.	voice	2C# 2e# 2g#
2I	F#:maj	131.711	.	voice	2F# 2a# 2cc#
=73	=73	=73	=73	=73	=73
2I	F#:maj	132.627	.	voice	2F# 2a# 2cc#
2IV	B:maj	133.542	.	voice	2B 2dd# 2ff#
=74	=74	=74	=74	=74	=74
2V	C#:maj	134.458	.	voice	2C# 2e# 2g#
2I	F#:maj	135.373	.	voice	2F# 2a# 2cc#
=75	=75	=75	=75	=75	=75
2I	F#:maj	136.289	newline	voice	2F# 2a# 2cc#
2IV	B:maj	136.627	.	voice	2B 2dd# 2ff#
=76	=76	=76	=76	=76	=76
2V	C#:maj	136.965	.	voice	2C# 2e# 2g#
2I	F#:maj	137.303	.	voice	2F# 2a# 2cc#
=77	=77	=77	=77	=77	=77
2I	F#:maj	137.642	.	voice	2F# 2a# 2cc#
2IV	B:maj	137.98	.	voice	2B 2dd# 2ff#
=78	=78	=78	=78	=78	=78
2V	C#:maj	138.318	.	voice	2C# 2e# 2g#
2I	F#:maj	138.656	.	voice	2F# 2a# 2cc#
1r;	N	138.995	.	r	1r;
1r;	N	142.576	.	r	1r;
*-	*-	*-	*-	*-	*-
!!!OTL: Little Bit O' Soul
!!!COC: The Music Explosion
!!!BillboardChartDate: 1967/05/20
!!!BillboardPeak: 2
!!!BillboardWeeksOnChart: 16
!!!SampleTargetRank: 73
!!!SampleActualRank: 73
!!!SampleID#: 0467
!!!RDF**harmony: **recip + pitch class of root + harmonic quality
!!!RDF**harte: Chris Harte's syntax, used by MIREX
!!!RDF**phrase: newline = linebreak in original McGill transcription
!!!RDF**timestamp: McGill audio timestamp in seconds
!!!RDF**leadinstrument: original McGill primary instrumentation annotation
!!!RDT: 2017/01/12/
!!!ENC: Nathaniel Condit-Schultz
!!!EST: Awating manual error checking and editing.
